Mobile-Robots-Group-UC3M/AdamSim/data/realData/left1.csv
joint_0,joint_1,joint_2,joint_3,joint_4,joint_5
-0.7291803359985352,-2.25854029277944,-2.9861789385425013,-0.48995478570971684,2.039848804473877,1.1074857711791992
-0.7298173904418945,-2.2589222393431605,-2.985589090977804,-0.49000342309985356,2.0398125648498535,1.1074738502502441
-0.7299356460571289,-2.2589694462218226,-2.9824114481555384,-0.4899671834758301,2.039872646331787,1.1075100898742676
-0.7300910949707031,-2.259029050866598,-2.9761253038989466,-0.48994334161791997,2.0398011207580566,1.1074738502502441
-0.7302007675170898,-2.259197851220602,-2.9692912737475794,-0.4899795812419434,2.039848804473877,1.1074857711791992
-0.7306327819824219,-2.2593900165953578,-2.9619208017932337,-0.4899910253337403,2.0398478507995605,1.1074976921081543
-0.7310018539428711,-2.2597228489317835,-2.9545355478869837,-0.49001534402880864,2.0398011207580566,1.1074857711791992
-0.7310495376586914,-2.2599979839720667,-2.9474502245532435,-0.490039662723877,2.039764881134033,1.1074976921081543
-0.7310495376586914,-2.260796686212057,-2.942138735448019,-0.4899910253337403,2.039860248565674,1.1074738502502441
-0.7311105728149414,-2.262259145776266,-2.9343863169299524,-0.4900515836528321,2.0397887229919434,1.107461929321289
-0.7311582565307617,-2.263106485406393,-2.924619976674215,-0.4899795812419434,2.0398364067077637,1.1074976921081543
-0.7315082550048828,-2.2651950321593226,-2.9171610514270228,-0.4900272649577637,2.0398364067077637,1.107461929321289
-0.7314939498901367,-2.267015596429342,-2.907635752354757,-0.4900878232768555,2.0398364067077637,1.1074738502502441
-0.7314815521240234,-2.267496248284811,-2.896048132573263,-0.49001534402880864,2.0398364067077637,1.107461929321289
-0.7315530776977539,-2.267496248284811,-2.8804829756366175,-0.4900515836528321,2.039848804473877,1.1074857711791992
-0.7315778732299805,-2.267508169213766,-2.8651583830462855,-0.49007590234790044,2.0398364067077637,1.1074738502502441
-0.7315301895141602,-2.267508169213766,-2.8487804571734827,-0.4900515836528321,2.039860248565674,1.107461929321289
-0.7315530776977539,-2.267543932000631,-2.83240777650942,-0.490039662723877,2.0398240089416504,1.1075100898742676
-0.7315778732299805,-2.267519613305563,-2.81520659128298,-0.4900515836528321,2.0398364067077637,1.1075100898742676
-0.7315893173217773,-2.267532011071676,-2.800373379384176,-0.4900272649577637,2.0398364067077637,1.1075339317321777
-0.7315778732299805,-2.2675558529295863,-2.786672894154684,-0.49000342309985356,2.039848804473877,1.107461929321289
-0.7315778732299805,-2.267543932000631,-2.77281624475588,-0.49006350458178716,2.039872646331787,1.1075339317321777
-0.7315893173217773,-2.267543932000631,-2.7563801447497767,-0.49006350458178716,2.039848804473877,1.1075100898742676
-0.7316007614135742,-2.2675920925536097,-2.742972437535421,-0.49006350458178716,2.039848804473877,1.1075215339660645
-0.7316255569458008,-2.26761593441152,-2.7241748015033167,-0.4900515836528321,2.0398364067077637,1.1074976921081543
-0.7316141128540039,-2.2676755390562953,-2.7089343706714075,-0.4900272649577637,2.039860248565674,1.1075100898742676
-0.7316007614135742,-2.26763977626943,-2.69751745859255,-0.4900272649577637,2.0398364067077637,1.1074857711791992
-0.7316617965698242,-2.270123144189352,-2.6856630484210413,-0.49006350458178716,2.0398850440979004,1.1074857711791992
-0.7319192886352539,-2.276389261285299,-2.6697052160846155,-0.4900272649577637,2.039860248565674,1.1074738502502441
-0.7321310043334961,-2.28371586422109,-2.653955046330587,-0.49006350458178716,2.0398125648498535,1.1074738502502441
-0.7325000762939453,-2.29030241588735,-2.637707297001974,-0.4900272649577637,2.0398240089416504,1.1074738502502441
-0.7343845367431641,-2.293168684045309,-2.620429579411642,-0.4900515836528321,2.039848804473877,1.107461929321289
-0.7347421646118164,-2.2937971554198207,-2.6031277815448206,-0.49006350458178716,2.0398364067077637,1.1074738502502441
-0.7350015640258789,-2.2959209881224574,-2.5859268347369593,-0.4901116651347657,2.0398240089416504,1.1074976921081543
-0.7358484268188477,-2.298131605187887,-2.5701025168048304,-0.49059422433886724,2.0398240089416504,1.107461929321289
-0.7401304244995117,-2.3024679623045863,-2.555518690739767,-0.4906185430339356,2.0398364067077637,1.107461929321289
-0.744379997253418,-2.308745046655172,-2.545365635548727,-0.4907387059978028,2.0398125648498535,1.107450008392334
-0.7523126602172852,-2.3142410717406214,-2.536984984074728,-0.4907749456218262,2.0398011207580566,1.107461929321289
-0.7614774703979492,-2.3189603290953578,-2.5290783087359827,-0.4907749456218262,2.03977632522583,1.1074376106262207
-0.771733283996582,-2.3217088184752406,-2.521989885960714,-0.4907868665507813,2.0398240089416504,1.107450008392334
-0.7842607498168945,-2.322271009484762,-2.5146620909320276,-0.4907992643168946,2.0398125648498535,1.1074137687683105
-0.7979192733764648,-2.322498937646383,-2.508167330418722,-0.49082310617480474,2.0398240089416504,1.107450008392334
-0.810786247253418,-2.3239618740477503,-2.5013883749591272,-0.49082310617480474,2.03977632522583,1.1074376106262207
-0.8218746185302734,-2.3244744739928187,-2.493861261998312,-0.49082310617480474,2.039848804473877,1.107450008392334
-0.828700065612793,-2.3249126873412074,-2.4850123564349573,-0.4907992643168946,2.0398240089416504,1.1074738502502441
-0.8286657333374023,-2.326071878472799,-2.480947796498434,-0.4908350271037598,2.039860248565674,1.1074857711791992
-0.8287744522094727,-2.330301900903219,-2.4659763018237513,-0.4908598226359864,2.0398850440979004,1.1074857711791992
-0.8287744522094727,-2.330301900903219,-2.4659763018237513,-0.4908598226359864,2.0398850440979004,1.1074857711791992
-0.8286657333374023,-2.3411389789977015,-2.4361255804644983,-0.4910648626140137,2.0398964881896973,1.1074857711791992
-0.8287858963012695,-2.3427468738951625,-2.4312594572650355,-0.49116404474291997,2.0398964881896973,1.107461929321289
-0.8287258148193359,-2.3462358913817347,-2.4145177046405237,-0.49122126520190434,2.039872646331787,1.1074857711791992
-0.8287258148193359,-2.3462358913817347,-2.4145177046405237,-0.49122126520190434,2.039872646331787,1.1074857711791992
-0.8288335800170898,-2.3480283222594203,-2.3784104029284876,-0.49271519601855474,2.039872646331787,1.1074376106262207
-0.8288335800170898,-2.3480283222594203,-2.3784104029284876,-0.49271519601855474,2.039872646331787,1.1074376106262207
-0.8288335800170898,-2.348184724847311,-2.3517165819751185,-0.5168398183635254,2.0398964881896973,1.107461929321289
-0.8288335800170898,-2.3482333622374476,-2.340125862752096,-0.5371249479106446,2.039907932281494,1.107461929321289
-0.8287973403930664,-2.3486067257323207,-2.3228874842273157,-0.5724380773356934,2.0398850440979004,1.107461929321289
-0.8288450241088867,-2.3487278423705042,-2.320932690297262,-0.5766800206950684,2.0399203300476074,1.107450008392334
-0.8288698196411133,-2.3509909115233363,-2.2956631819354456,-0.6172517103007813,2.0398850440979004,1.1074376106262207
-0.8288698196411133,-2.351341863671774,-2.2918651739703577,-0.6224110883525391,2.039907932281494,1.1074261665344238
-0.8288698196411133,-2.351341863671774,-2.2918651739703577,-0.6224110883525391,2.039907932281494,1.1074261665344238
-0.8288698196411133,-2.351341863671774,-2.2918651739703577,-0.6224110883525391,2.039907932281494,1.1074261665344238
-0.8359251022338867,-2.3529020748534144,-2.24833327928652,-0.6608322423747559,2.0399327278137207,1.1053838729858398
-0.8359127044677734,-2.3528782329955042,-2.241035763417379,-0.6667478841594239,2.039907932281494,1.105288028717041
-0.8359003067016602,-2.3528782329955042,-2.230683151875631,-0.6782191556743165,2.0398850440979004,1.1051535606384277
-0.8358774185180664,-2.352841993371481,-2.221628491078512,-0.702388123875,2.0399203300476074,1.103501796722412
-0.8358774185180664,-2.352841993371481,-2.221628491078512,-0.702388123875,2.0399203300476074,1.103501796722412
-0.8358640670776367,-2.352830549279684,-2.2102654615985315,-0.7345073980144043,2.0399441719055176,1.0900568962097168
-0.835841178894043,-2.3528062305846156,-2.1989372412311,-0.7695635122111817,2.040004253387451,1.0653653144836426
-0.835841178894043,-2.3528062305846156,-2.1989372412311,-0.7695635122111817,2.040004253387451,1.0653653144836426
-0.835841178894043,-2.3528062305846156,-2.1989372412311,-0.7695635122111817,2.040004253387451,1.0653653144836426
-0.8358049392700195,-2.3528062305846156,-2.1822479406939905,-0.8467567724040528,2.040112018585205,0.9964737892150879
-0.8357686996459961,-2.3527585468687953,-2.1772616545306605,-0.8631718915751954,2.0401721000671387,0.9782228469848633
-0.8357210159301758,-2.352734705010885,-2.170975987111227,-0.8822434705546875,2.0402073860168457,0.9592862129211426
-0.8357686996459961,-2.3526746235289515,-2.165070358906881,-0.9013946813395997,2.0402674674987793,0.9337277412414551
-0.8356971740722656,-2.3526746235289515,-2.1590898672686976,-0.9212749761394043,2.0403389930725098,0.9016485214233398
-0.8357686996459961,-2.352650304833883,-2.151843849812643,-0.942040280704834,2.0404229164123535,0.8703165054321289
-0.8356971740722656,-2.3525549374022425,-2.1420777479754847,-0.9582021993449708,2.0404343605041504,0.8442840576171875
-0.8356971740722656,-2.3525425396361292,-2.1297906080829065,-0.9670761388591309,2.0404467582702637,0.815213680267334
-0.8356485366821289,-2.3525310955443324,-2.1172316710101526,-0.9739692968181153,2.0404467582702637,0.7844991683959961
-0.8356122970581055,-2.3525425396361292,-2.10610801378359,-0.9935401243022461,2.040470600128174,0.7570123672485352
-0.8356132507324219,-2.352482934991354,-2.097205940877096,-1.0249813360026856,2.0404820442199707,0.7278470993041992
-0.835540771484375,-2.352506776849264,-2.089228932057516,-1.0486739438823243,2.0404953956604004,0.6952533721923828
-0.8355531692504883,-2.352471014062399,-2.0819018522845667,-1.061274842625,2.040518283843994,0.6654715538024902
-0.835540771484375,-2.352506776849264,-2.0748160521136683,-1.0716760915568848,2.0405306816101074,0.6333727836608887
-0.8354692459106445,-2.352410932580465,-2.068428341542379,-1.0818498891643067,2.040602207183838,0.6022028923034668
-0.8354692459106445,-2.3524233303465785,-2.0626099745379847,-1.085869626407959,2.040590763092041,0.5758395195007324
-0.8353376388549805,-2.3523150883116664,-2.054905716572897,-1.0865381521037598,2.0406622886657715,0.5475015640258789
-0.835362434387207,-2.352279325524801,-2.0425284544574183,-1.0868819516948243,2.040733814239502,0.5129408836364746
-0.8353147506713867,-2.352243562737936,-2.0317185560809534,-1.0872371953776856,2.040733814239502,0.48181915283203125
-0.83526611328125,-2.3522917232909144,-2.0200427214251917,-1.0918153089335938,2.0406975746154785,0.43580102920532227
-0.8353261947631836,-2.3523394070067347,-2.013296429310934,-1.092090443973877,2.040733814239502,0.38437604904174805
-0.8354463577270508,-2.3524114094176234,-2.0121806303607386,-1.09248240411792,2.040841579437256,0.3398003578186035
-0.8354578018188477,-2.352387090722555,-2.012120548878805,-1.0982392591289063,2.043417453765869,0.31824159622192383
-0.8354463577270508,-2.352375646630758,-2.011900250111715,-1.1184290212443848,2.0567421913146973,0.316253662109375
-0.8354330062866211,-2.352387090722555,-2.0079548994647425,-1.1530516904643555,2.08681058883667,0.3102993965148926
-0.8354339599609375,-2.352363248864645,-2.0014050642596644,-1.1784442228129883,2.110900402069092,0.28722524642944336
-0.8353853225708008,-2.352387090722555,-1.9929755369769495,-1.1810696882060547,2.113678455352783,0.2689638137817383
-0.8353977203369141,-2.3523994884886683,-1.9810317198382776,-1.1810453695109864,2.1138949394226074,0.26801061630249023
-0.8354215621948242,-2.3524233303465785,-1.9726946989642542,-1.1811788839152833,2.114266872406006,0.26793813705444336
-0.8354463577270508,-2.352410932580465,-1.9622953573810022,-1.1863296788981934,2.115143299102783,0.2642340660095215
-0.8354215621948242,-2.3523274860777796,-1.9524367491351526,-1.1940902036479493,2.1157517433166504,0.261934757232666
-0.8354215621948242,-2.3523394070067347,-1.9433825651751917,-1.2065089505961915,2.1168618202209473,0.26192235946655273
-0.8354215621948242,-2.352375646630758,-1.9365318457232874,-1.2178819936564942,2.1262221336364746,0.26149892807006836
-0.8354215621948242,-2.35235132793569,-1.928934399281637,-1.2292116445354004,2.149880886077881,0.25452089309692383
-0.8353977203369141,-2.352375646630758,-1.9218104521380823,-1.243966893558838,2.166038990020752,0.23439884185791016
-0.8354101181030273,-2.3523274860777796,-1.9160216490374964,-1.2578085225871583,2.1691222190856934,0.22005462646484375
-0.8353147506713867,-2.352279325524801,-1.9083259741412562,-1.268524484043457,2.1711583137512207,0.21983671188354492
-0.8353738784790039,-2.3521954021849574,-1.8964117209063929,-1.2708895963481446,2.1716647148132324,0.21982431411743164
-0.8353490829467773,-2.352171560327047,-1.8820722738849085,-1.2709010404399415,2.1740212440490723,0.21988439559936523
-0.8353738784790039,-2.352147718469137,-1.8700464407550257,-1.2709625524333497,2.1977896690368652,0.21986055374145508
-0.8353147506713867,-2.352135797540182,-1.8631146589862269,-1.2768042844584961,2.227139949798584,0.21982431411743164
-0.8352899551391602,-2.352123876611227,-1.8583572546588343,-1.2914164823344727,2.2310452461242676,0.21988439559936523
-0.835301399230957,-2.352159639398092,-1.852091137562887,-1.307776765232422,2.2310566902160645,0.21986055374145508
-0.8353147506713867,-2.3521000347533167,-1.8462393919574183,-1.3155382436564942,2.231116771697998,0.2198481559753418
-0.835230827331543,-2.3519674740233363,-1.8404877821551722,-1.3197439473918458,2.2313952445983887,0.21987247467041016
-0.8351573944091797,-2.3516680202879847,-1.83354360262026,-1.3202999395183106,2.231534481048584,0.21986055374145508
-0.8350486755371094,-2.3513180218138636,-1.8262584845172327,-1.321070985203125,2.2317748069763184,0.21982431411743164
-0.834965705871582,-2.350898405114645,-1.8199837843524378,-1.3229621213725586,2.2324070930480957,0.21986055374145508
-0.8348941802978516,-2.34847416500234,-1.8121603170977991,-1.330700234775879,2.2358717918395996,0.21987295150756836
-0.8348112106323242,-2.343104501763815,-1.8004196325885218,-1.3401149076274415,2.258059024810791,0.2198963165283203
-0.8347492218017578,-2.335252901116842,-1.792779270802633,-1.352644757633545,2.2743000984191895,0.21992063522338867
-0.8347635269165039,-2.334005971948141,-1.7887871901141565,-1.3588317197612305,2.2743725776672363,0.21994447708129883
-0.8347988128662109,-2.3339201412596644,-1.7821157614337366,-1.3672831815532227,2.2745394706726074,0.21999216079711914
-0.8347263336181641,-2.333400865594381,-1.7741811911212366,-1.3703625959208985,2.274813175201416,0.21998023986816406
-0.8347253799438477,-2.330759187737936,-1.7691558043109339,-1.3704832357219239,2.275719165802002,0.22031593322753906
-0.8347158432006836,-2.328365465203756,-1.7637189070331019,-1.3717039388469239,2.2872872352600098,0.22031593322753906
-0.8347635269165039,-2.328317781487936,-1.7602456251727503,-1.3811205190471192,2.294485569000244,0.22032785415649414
-0.8347635269165039,-2.3282443485655726,-1.755185906087057,-1.3921330732158204,2.2956833839416504,0.22036457061767578
-0.8346643447875977,-2.325468202630514,-1.7484095732318323,-1.3922546666911622,2.303703784942627,0.2207622528076172
-0.834716796875,-2.3220888576903285,-1.7430580298053187,-1.3925121587565918,2.325775623321533,0.22114324569702148
-0.8346185684204102,-2.3207737408080042,-1.736511532460348,-1.3950813573649903,2.3365025520324707,0.22120285034179688
-0.8346319198608398,-2.3207737408080042,-1.7315152327166956,-1.3955696386149903,2.336611270904541,0.22187566757202148
-0.8345832824707031,-2.320653577844137,-1.728401009236471,-1.3998382848552247,2.336670398712158,0.22224807739257812
-0.8345708847045898,-2.320353170434469,-1.7265170256244105,-1.404315785770752,2.337562084197998,0.22393274307250977
-0.8345117568969727,-2.3190623722472132,-1.722048584614889,-1.4049533170512696,2.343888759613037,0.22423410415649414
-0.8344278335571289,-2.313042303124899,-1.7160237471209925,-1.4132860463908692,2.3529725074768066,0.22426986694335938
-0.8342351913452148,-2.3075901470580042,-1.7103713194476526,-1.4172619146159668,2.3532538414001465,0.2243189811706543
-0.8340635299682617,-2.3052507839598597,-1.7041543165790003,-1.417273835544922,2.3545937538146973,0.22578144073486328
-0.833125114440918,-2.304983755151266,-1.6984313170062464,-1.4171770376018067,2.3552002906799316,0.23569679260253906
-0.8291702270507812,-2.3045059643187464,-1.6936968008624476,-1.4171045583537598,2.3556313514709473,0.24476385116577148
-0.82208251953125,-2.2990862331786097,-1.685413662587301,-1.417116956119873,2.358665943145752,0.2527475357055664
-0.8201971054077148,-2.285755773583883,-1.6741393248187464,-1.4171055120280762,2.358884334564209,0.27082300186157227
-0.8199396133422852,-2.278743406335348,-1.664750878010885,-1.4170683187297364,2.3588967323303223,0.27780771255493164
-0.8195209503173828,-2.2764841518797816,-1.6550677458392542,-1.4167650502971192,2.3589091300964355,0.27890539169311523
-0.8161096572875977,-2.274339815179342,-1.6426852385150355,-1.4148476880839844,2.3590521812438965,0.29071950912475586
-0.8040695190429688,-2.2734037838377894,-1.6313322226153772,-1.4139660161784668,2.359015941619873,0.30875492095947266
-0.7906560897827148,-2.2733799419798792,-1.6259616057025355,-1.4140260976604004,2.3590283393859863,0.3134145736694336
-0.785517692565918,-2.273368021050924,-1.6198785940753382,-1.413989858036377,2.358992099761963,0.32416296005249023
-0.7855291366577148,-2.2733918629088343,-1.6119416395770472,-1.413989858036377,2.3590035438537598,0.3356003761291504
-0.7853374481201172,-2.2734161816039027,-1.6050275007831019,-1.4139536184123536,2.3590283393859863,0.33841514587402344
-0.7851572036743164,-2.2734037838377894,-1.5981710592852991,-1.4138696950725098,2.3590035438537598,0.33867835998535156
-0.7851581573486328,-2.2733918629088343,-1.5926592985736292,-1.413881616001465,2.3590283393859863,0.338869571685791
-0.7850742340087891,-2.273332258264059,-1.5863564650165003,-1.4138696950725098,2.3590035438537598,0.3392057418823242
-0.7849655151367188,-2.273343702355856,-1.5793984572040003,-1.4137852948955079,2.3590283393859863,0.3394193649291992
-0.7846879959106445,-2.2728945217528285,-1.5744407812701624,-1.4136021894267579,2.3590760231018066,0.3394432067871094
-0.7827787399291992,-2.2722917995848597,-1.5707696119891565,-1.413219766025879,2.359123706817627,0.33946704864501953
-0.7762575149536133,-2.272087713281149,-1.5664389769183558,-1.4132078450969239,2.3592677116394043,0.33945512771606445
-0.7711515426635742,-2.2720405064024867,-1.5662811438189905,-1.4131363195231934,2.3594346046447754,0.3394789695739746
-0.7706155776977539,-2.2720524273314417,-1.5662568251239222,-1.413184480076172,2.3616786003112793,0.33945512771606445
-0.7706155776977539,-2.2720405064024867,-1.5662692228900355,-1.4132321637919922,2.3667874336242676,0.339418888092041
-0.7705678939819336,-2.2720166645445765,-1.5662692228900355,-1.4132440847209473,2.3682198524475098,0.33946657180786133
-0.7705907821655273,-2.2720405064024867,-1.5662568251239222,-1.4132440847209473,2.368506908416748,0.3394789695739746
-0.7706031799316406,-2.2720285854735316,-1.5662568251239222,-1.4132440847209473,2.368649959564209,0.33944272994995117
-0.770543098449707,-2.2720405064024867,-1.5662930647479456,-1.4132564824870606,2.3687567710876465,0.33940696716308594
-0.7705907821655273,-2.2720047436156214,-1.5662811438189905,-1.4132684034160157,2.3687682151794434,0.33944272994995117
-0.7705545425415039,-2.2720047436156214,-1.5663049856769007,-1.4132321637919922,2.368983745574951,0.33944272994995117
-0.7705316543579102,-2.2720047436156214,-1.5662930647479456,-1.4132202428630372,2.3705906867980957,0.33945512771606445
-0.7705183029174805,-2.2720047436156214,-1.5663049856769007,-1.4132321637919922,2.370678424835205,0.33940696716308594
-0.770543098449707,-2.2720166645445765,-1.5663049856769007,-1.4132078450969239,2.3706421852111816,0.33934688568115234
-0.7705793380737305,-2.2720405064024867,-1.5662692228900355,-1.4132321637919922,2.3707146644592285,0.3393826484680176
-0.770543098449707,-2.2720285854735316,-1.5662930647479456,-1.4132564824870606,2.370678424835205,0.3393826484680176
-0.7705793380737305,-2.2720405064024867,-1.5663169066058558,-1.4132684034160157,2.3707146644592285,0.33933496475219727
-0.7705678939819336,-2.2720285854735316,-1.566329304371969,-1.4132564824870606,2.370689868927002,0.33934688568115234
-0.7705678939819336,-2.2720524273314417,-1.5663169066058558,-1.4132078450969239,2.370689868927002,0.3393712043762207
-0.7706270217895508,-2.2720285854735316,-1.566329304371969,-1.4132564824870606,2.3707022666931152,0.3393712043762207
-0.7705907821655273,-2.2720405064024867,-1.566340748463766,-1.4132440847209473,2.3707146644592285,0.3393588066101074
-0.7706747055053711,-2.2720285854735316,-1.566329304371969,-1.4132321637919922,2.3707261085510254,0.3393712043762207
-0.7706155776977539,-2.272064825097555,-1.566340748463766,-1.4132684034160157,2.3707146644592285,0.3393826484680176
-0.7706747055053711,-2.272088666955465,-1.566340748463766,-1.4132803243449708,2.3707375526428223,0.3393588066101074
-0.7706871032714844,-2.272064825097555,-1.5663531462298792,-1.4132202428630372,2.3707375526428223,0.33940696716308594
-0.7707223892211914,-2.272123952905172,-1.5664013067828577,-1.4132440847209473,2.3707022666931152,0.3393712043762207
-0.7707223892211914,-2.272088666955465,-1.5666173140155237,-1.4132684034160157,2.370689868927002,0.33939504623413086
-0.7707109451293945,-2.272088666955465,-1.5668113867389124,-1.4132803243449708,2.3707261085510254,0.33940696716308594
-0.770747184753418,-2.2721363506712855,-1.5671456495868128,-1.413304166202881,2.3707022666931152,0.3393826484680176
-0.770747184753418,-2.272123952905172,-1.567568604146139,-1.4132684034160157,2.370666027069092,0.33940696716308594
-0.7708196640014648,-2.2721125088133753,-1.569700066243307,-1.4132684034160157,2.370666027069092,0.3393712043762207
-0.7708063125610352,-2.2721601925291957,-1.5756080786334437,-1.4132803243449708,2.370678424835205,0.3393826484680176
-0.7708063125610352,-2.2721363506712855,-1.5783007780658167,-1.4133404058269043,2.370666027069092,0.33939504623413086
-0.7708196640014648,-2.2721363506712855,-1.5798128286944788,-1.413304166202881,2.3706421852111816,0.3394308090209961
-0.7708549499511719,-2.2721601925291957,-1.5872257391559046,-1.4133404058269043,2.370666027069092,0.33939504623413086
-0.7715024948120117,-2.2721601925291957,-1.5921257177936,-1.4133404058269043,2.3707022666931152,0.33940696716308594
-0.7715387344360352,-2.2721721134581507,-1.5961416403399866,-1.4133165639689942,2.370689868927002,0.33939504623413086
-0.7715253829956055,-2.2721363506712855,-1.601067368184225,-1.4133404058269043,2.3707022666931152,0.33940696716308594
-0.7715740203857422,-2.272219797173971,-1.6059497038470667,-1.4133404058269043,2.370689868927002,0.3394432067871094
-0.7716341018676758,-2.272207876245016,-1.6128748098956507,-1.4133523267558594,2.370678424835205,0.3394308090209961
-0.7716341018676758,-2.272207876245016,-1.6128748098956507,-1.4133523267558594,2.370678424835205,0.3394308090209961
-0.7716341018676758,-2.272207876245016,-1.6128748098956507,-1.4133523267558594,2.370678424835205,0.3394308090209961
-0.7716455459594727,-2.272196432153219,-1.6353147665606897,-1.4133165639689942,2.3707022666931152,0.33951473236083984
-0.7716455459594727,-2.272196432153219,-1.6353147665606897,-1.4133165639689942,2.3707022666931152,0.33951473236083984
-0.7717905044555664,-2.272208353082174,-1.646405045186178,-1.4133404058269043,2.370689868927002,0.3395266532897949
-0.7717905044555664,-2.272208353082174,-1.646405045186178,-1.4133404058269043,2.370689868927002,0.3395266532897949
-0.7717905044555664,-2.272208353082174,-1.646405045186178,-1.4133404058269043,2.370689868927002,0.3395266532897949
-0.7717905044555664,-2.272208353082174,-1.646405045186178,-1.4133404058269043,2.370689868927002,0.3395266532897949
-0.7717905044555664,-2.272208353082174,-1.646405045186178,-1.4133404058269043,2.370689868927002,0.3395266532897949
-0.7717905044555664,-2.272208353082174,-1.646405045186178,-1.4133404058269043,2.370689868927002,0.3395266532897949
-0.7737560272216797,-2.2758504352965296,-1.6897128264056605,-1.4149812024882813,2.3700194358825684,0.3909459114074707
-0.7774515151977539,-2.2769772015013636,-1.6974294821368616,-1.4151809972575684,2.369936466217041,0.3909459114074707
-0.7947607040405273,-2.2859040699400843,-1.7097461859332483,-1.4151929181865235,2.368577480316162,0.3940420150756836
-0.806025505065918,-2.2961069546141566,-1.7171343008624476,-1.4151080411723633,2.367586612701416,0.4015216827392578
-0.8083620071411133,-2.2989140949644984,-1.7192891279803675,-1.415144757633545,2.3673596382141113,0.40149736404418945
-0.8098726272583008,-2.304147859612936,-1.722748104725973,-1.4150846761516114,2.367288112640381,0.40154552459716797
-0.810603141784668,-2.3212367496886195,-1.7308133284198206,-1.4150608342937012,2.3670973777770996,0.4027085304260254
-0.810603141784668,-2.3212367496886195,-1.7308133284198206,-1.4150608342937012,2.3670973777770996,0.4027085304260254
-0.810603141784668,-2.3212367496886195,-1.7308133284198206,-1.4150608342937012,2.3670973777770996,0.4027085304260254
-0.8108549118041992,-2.347722669641012,-1.7334063688861292,-1.4150961202434083,2.3517842292785645,0.442842960357666
-0.8107576370239258,-2.351464410821432,-1.7334426085101526,-1.4150965970805665,2.345515727996826,0.4637565612792969
-0.8106966018676758,-2.3518253765501917,-1.7334182898150843,-1.4150350850871583,2.345503330230713,0.464322566986084
-0.8108644485473633,-2.360601087609762,-1.7334426085101526,-1.4150121969035645,2.345395565032959,0.4704766273498535
-0.8109254837036133,-2.370765825311178,-1.733490292225973,-1.414975957279541,2.344935894012451,0.49243879318237305
-0.8109254837036133,-2.370765825311178,-1.733490292225973,-1.414975957279541,2.344935894012451,0.49243879318237305
-0.8109846115112305,-2.386519571343893,-1.7334664503680628,-1.4145186704448243,2.343367099761963,0.5305981636047363
-0.8109607696533203,-2.398365636865133,-1.7334664503680628,-1.414095715885498,2.3434033393859863,0.5523190498352051
-0.8109607696533203,-2.398365636865133,-1.7334664503680628,-1.414095715885498,2.3434033393859863,0.5523190498352051
-0.8108301162719727,-2.417497774163717,-1.7333582083331507,-1.4137485784343262,2.3433308601379395,0.5757274627685547
-0.8108301162719727,-2.417497774163717,-1.7333582083331507,-1.4137485784343262,2.3433308601379395,0.5757274627685547
-0.8108301162719727,-2.417497774163717,-1.7333582083331507,-1.4137485784343262,2.3433308601379395,0.5757274627685547
-0.810734748840332,-2.4629093609251917,-1.733382527028219,-1.4132440847209473,2.343318462371826,0.5885491371154785
-0.8107099533081055,-2.48581661800527,-1.7334182898150843,-1.4132078450969239,2.343078136444092,0.5885248184204102
-0.8106985092163086,-2.509449621240133,-1.733298126851217,-1.4111898702434083,2.3410744667053223,0.5885844230651855
-0.8106489181518555,-2.5216595135130824,-1.7333701292621058,-1.4065025609782715,2.3408713340759277,0.5885605812072754
-0.8106479644775391,-2.5282355747618617,-1.7333343664752405,-1.399808720951416,2.3404526710510254,0.5885968208312988
-0.810734748840332,-2.529752870599264,-1.733274284993307,-1.394242600803711,2.3369851112365723,0.5886445045471191
-0.8107461929321289,-2.529740949670309,-1.733286205922262,-1.3849256795695801,2.3159146308898926,0.5888404846191406
-0.8107700347900391,-2.5298625431456507,-1.7331894079791468,-1.3758080762675782,2.278533458709717,0.5936589241027832
-0.8108053207397461,-2.532036443749899,-1.733154598866598,-1.366044358616211,2.2546753883361816,0.6102032661437988
-0.8107824325561523,-2.538274427453512,-1.7331903616534632,-1.3562720578959961,2.2399449348449707,0.6201920509338379
-0.8107700347900391,-2.548720975915426,-1.7331307570086878,-1.3508108419230958,2.2362780570983887,0.6202392578125
-0.8107824325561523,-2.5633126697936,-1.7331307570086878,-1.3471368116191407,2.2361702919006348,0.6203474998474121
-0.8107938766479492,-2.57773556331777,-1.7331178824054163,-1.346541242008545,2.236145496368408,0.6207385063171387
-0.8107461929321289,-2.590698381463522,-1.7330105940448206,-1.3437813085368653,2.2349705696105957,0.6246838569641113
-0.810734748840332,-2.6022259197630824,-1.7327702681170862,-1.3350251478007813,2.2179532051086426,0.6333169937133789
-0.8107595443725586,-2.614664217034811,-1.732722584401266,-1.316364125614502,2.191044330596924,0.6421370506286621
-0.8107576370239258,-2.62768616298818,-1.7327588240252894,-1.2933643621257325,2.1724600791931152,0.6436347961425781
-0.8107099533081055,-2.6430798969664515,-1.732722584401266,-1.2739685338786622,2.1670174598693848,0.6438274383544922
-0.8108053207397461,-2.6564513645567835,-1.7324426809894007,-1.260202245121338,2.1631922721862793,0.6440320014953613
-0.8108434677124023,-2.671133657495016,-1.7297223250018519,-1.2468107503703614,2.149442195892334,0.6457204818725586
-0.8107185363769531,-2.6828490696349085,-1.724121395741598,-1.2329233449748536,2.1363863945007324,0.6473526954650879
-0.8108224868774414,-2.6902271709837855,-1.7172310988055628,-1.2267568868449708,2.1200318336486816,0.6479969024658203
-0.8109025955200195,-2.6968699894347132,-1.7112229506122034,-1.223621205692627,2.1172661781311035,0.6509737968444824
-0.810938835144043,-2.7044879398741664,-1.7050746122943323,-1.2234228414348145,2.114017963409424,0.6509976387023926
-0.8109235763549805,-2.713797708550924,-1.6995132605182093,-1.223374680881836,2.1112494468688965,0.6512155532836914
-0.8108768463134766,-2.725417753259176,-1.6943681875811976,-1.223287896519043,2.111177921295166,0.6536908149719238
-0.8109989166259766,-2.738704820672506,-1.6891825834857386,-1.2232182782939454,2.1108250617980957,0.6604800224304199
-0.8109502792358398,-2.7526709041991175,-1.6828396956073206,-1.223182038669922,2.106288433074951,0.6714344024658203
-0.8109617233276367,-2.7682157955565394,-1.6739605108844202,-1.2231944364360352,2.0932812690734863,0.6812539100646973
-0.8110599517822266,-2.7792231045165003,-1.6679557005511683,-1.2231701177409668,2.0910563468933105,0.6876893043518066
-0.8109979629516602,-2.7897354565062464,-1.6623852888690394,-1.2231334012797852,2.0910449028015137,0.7020373344421387
-0.8109617233276367,-2.7994657955565394,-1.6564748922931116,-1.2230609220317383,2.090925693511963,0.7144804000854492
-0.8109865188598633,-2.8086396656432093,-1.6473010222064417,-1.2230261129191895,2.0906739234924316,0.7244720458984375
-0.8111553192138672,-2.81498446087026,-1.636815373097555,-1.2230137151530762,2.0906386375427246,0.74322509765625
-0.8111076354980469,-2.820768972436422,-1.6273863951312464,-1.2227004331401368,2.0905299186706543,0.7610831260681152
-0.8109359741210938,-2.830632825891012,-1.6180632750140589,-1.2215402883342286,2.090506076812744,0.7836236953735352
-0.8110952377319336,-2.842257162133688,-1.6083644072162073,-1.2211249631694336,2.090506076812744,0.8032546043395996
-0.8108987808227539,-2.8509775600829066,-1.5995391050921839,-1.220318154697754,2.090519428253174,0.813356876373291
-0.8108282089233398,-2.857978960076803,-1.5907471815692347,-1.2196076673320313,2.090554714202881,0.8261184692382812
-0.8109874725341797,-2.864251276055807,-1.5781047979937952,-1.2184813779643555,2.090506076812744,0.8453030586242676
-0.8109731674194336,-2.8687058887877406,-1.566408936177389,-1.2159865659526368,2.090590000152588,0.8656458854675293
-0.8109865188598633,-2.872789045373434,-1.556793514882223,-1.2158067983439942,2.090651035308838,0.888216495513916
-0.811009407043457,-2.876477380792135,-1.548823658620016,-1.215721921329834,2.0907225608825684,0.9081683158874512
-0.8109502792358398,-2.879139562646383,-1.542279068623678,-1.215564565067627,2.090975284576416,0.9237709045410156
-0.8108797073364258,-2.8852697811522425,-1.5362408796893519,-1.2140343946269532,2.0916361808776855,0.9304890632629395
-0.810877799987793,-2.8947636089720667,-1.5297730604754847,-1.2138450902751465,2.0924324989318848,0.9309482574462891
-0.8108053207397461,-2.9059554539122523,-1.5210374037372034,-1.2137730878642579,2.0930466651916504,0.9413647651672363
-0.8108444213867188,-2.9140097103514613,-1.5108163992511194,-1.2137487691691895,2.0934863090515137,0.964118480682373
-0.8107814788818359,-2.920844694177145,-1.5014179388629358,-1.213628129368164,2.094290256500244,0.986391544342041
-0.8107938766479492,-2.9253274403014125,-1.4917433897601526,-1.213616208439209,2.095613956451416,1.0014643669128418
-0.8107700347900391,-2.9268528423705042,-1.4821942488299769,-1.2136410039714356,2.1021294593811035,1.0152134895324707
-0.8108539581298828,-2.9287315807738246,-1.4736292997943323,-1.2136529249003907,2.114037036895752,1.0281925201416016
-0.8108415603637695,-2.928934236566061,-1.4678261915790003,-1.2136529249003907,2.131666660308838,1.0384621620178223
-0.8108663558959961,-2.9289452038206996,-1.4633005301104944,-1.2136410039714356,2.1572813987731934,1.0496435165405273
-0.8108301162719727,-2.9291864834227503,-1.4590209166156214,-1.2136529249003907,2.1717495918273926,1.0563178062438965
-0.8107576370239258,-2.9326964817442835,-1.4539268652545374,-1.2136286062053223,2.171783924102783,1.062363624572754
-0.8106489181518555,-2.939040323297018,-1.4472296873675745,-1.213456467991211,2.1721339225769043,1.0726161003112793
-0.810612678527832,-2.947319646874899,-1.4373906294452112,-1.213144139652588,2.1766648292541504,1.085752010345459
-0.8106021881103516,-2.95662846187734,-1.429354492818014,-1.2130749982646485,2.1930508613586426,1.0906553268432617
-0.8105783462524414,-2.9652463398375453,-1.423096005116598,-1.2129667562297364,2.218080997467041,1.0985169410705566
-0.8105554580688477,-2.96958651165151,-1.4182570616351526,-1.2129176420024415,2.2375502586364746,1.1055588722229004
-0.8106508255004883,-2.9708897076048792,-1.4131210486041468,-1.2129309934428711,2.2585225105285645,1.1102705001831055
-0.810603141784668,-2.9719892940916957,-1.4088886419879358,-1.212919072513916,2.277348041534424,1.110490322113037
-0.8105916976928711,-2.9759770832457484,-1.403625790272848,-1.2129429143718262,2.2927184104919434,1.1158504486083984
-0.810490608215332,-2.9820648632445277,-1.3963893095599573,-1.2128465932658692,2.2952513694763184,1.1174349784851074
-0.8103523254394531,-2.9885412655272425,-1.3853791395770472,-1.2105053228190918,2.2953333854675293,1.1174941062927246
-0.8103151321411133,-2.994089265862936,-1.375117603932516,-1.1997783941081543,2.295475482940674,1.1176037788391113
-0.810267448425293,-2.9993492565550746,-1.3647626082049769,-1.1861527723125,2.295632839202881,1.121861457824707
-0.8102903366088867,-3.0023957691588343,-1.3532355467425745,-1.1657746595195313,2.2956910133361816,1.1316823959350586
-0.810302734375,-3.003075262109274,-1.3446901480304163,-1.1556456846049805,2.296016216278076,1.1369037628173828
-0.8102540969848633,-3.003324171105856,-1.3381922880755823,-1.1503537458232422,2.2963833808898926,1.1370048522949219
-0.810206413269043,-3.0032884083189906,-1.3316548506366175,-1.1493199628642579,2.2968811988830566,1.1370768547058105
-0.8102426528930664,-3.003300806085104,-1.3270486036883753,-1.1407311719707032,2.2990317344665527,1.1370530128479004
-0.8102312088012695,-3.0032764873900355,-1.3255394140826624,-1.12934763849292,2.307067394256592,1.1370530128479004
-0.8102312088012695,-3.0033003292479457,-1.3255394140826624,-1.113103227024414,2.3149514198303223,1.1370649337768555
-0.8102197647094727,-3.0032645664610804,-1.3254430929767054,-1.093015508060791,2.325974941253662,1.1370043754577637
-0.8101234436035156,-3.0032645664610804,-1.3253462950335901,-1.0813029569438477,2.3386759757995605,1.137028694152832
-0.8101234436035156,-3.003240247766012,-1.325299088154928,-1.0745104116252442,2.3575234413146973,1.137040615081787
-0.8101711273193359,-3.0032645664610804,-1.3251555601703089,-1.0698827070048829,2.3692898750305176,1.1370530128479004
-0.8101110458374023,-3.0032884083189906,-1.325179402028219,-1.0645626348308106,2.3793892860412598,1.1370530128479004
-0.8100996017456055,-3.003240247766012,-1.3251555601703089,-1.060197190647461,2.384700298309326,1.1370530128479004
-0.8100748062133789,-3.0032645664610804,-1.324850861226217,-1.0548389715007325,2.387556552886963,1.137040615081787
-0.8101234436035156,-3.0032884083189906,-1.320637051259176,-1.0543454450419922,2.3931965827941895,1.137040615081787
-0.8101358413696289,-3.0032645664610804,-1.311779801045553,-1.0542491239360352,2.4013447761535645,1.1370530128479004
-0.8100748062133789,-3.0032764873900355,-1.3029134909259241,-1.0541775983623047,2.408360004425049,1.1370649337768555
-0.8100395202636719,-3.003240247766012,-1.2910450140582483,-1.049846963291504,2.414154529571533,1.1370043754577637
-0.8100996017456055,-3.003216405908102,-1.2837470213519495,-1.0408337873271485,2.4186177253723145,1.137040615081787
-0.8099775314331055,-3.0031925640501917,-1.2833541075335901,-1.034508542423584,2.419522762298584,1.137040615081787
-0.809596061706543,-3.0031925640501917,-1.2831948439227503,-1.0227816861918946,2.42341947555542,1.137028694152832
-0.8095483779907227,-3.0031563244261683,-1.2806084791766565,-1.0091222089580079,2.4387946128845215,1.137028694152832
-0.8095235824584961,-3.0031563244261683,-1.2784622351275843,-1.0056141179851075,2.456918239593506,1.137016773223877
-0.8094882965087891,-3.0031448803343714,-1.2784984747516077,-1.0055540365031739,2.462097644805908,1.1369929313659668
-0.8094882965087891,-3.0031210384764613,-1.2784865538226526,-1.004974679355957,2.4622063636779785,1.1370530128479004
-0.8095483779907227,-3.0031210384764613,-1.2785823980914515,-0.9926269811442872,2.466137409210205,1.137028694152832
-0.8095121383666992,-3.003084798852438,-1.278534237538473,-0.9850567144206543,2.480686664581299,1.137040615081787
-0.8095235824584961,-3.003084798852438,-1.2785103956805628,-0.9850686353496094,2.4833626747131348,1.137040615081787
-0.8095598220825195,-3.003132482568258,-1.2785103956805628,-0.9851043981364747,2.4975266456604004,1.137028694152832
-0.8095121383666992,-3.0030371151366175,-1.2784984747516077,-0.9851043981364747,2.5249276161193848,1.137028694152832
-0.8095235824584961,-3.003084798852438,-1.2784865538226526,-0.9850681585124512,2.531411647796631,1.1370043754577637
-0.8095006942749023,-3.003073354760641,-1.2785223166095179,-0.9850929540446778,2.53666353225708,1.137028694152832
-0.8094396591186523,-3.0030251942076625,-1.2784627119647425,-0.9850319188884278,2.5523009300231934,1.137040615081787
-0.8094167709350586,-3.0030251942076625,-1.2784493605243128,-0.9850681585124512,2.5724968910217285,1.137016773223877
-0.8095006942749023,-3.0030609569945277,-1.2756593863116663,-0.9850443166545411,2.578747272491455,1.1370649337768555
-0.8094396591186523,-3.002977033654684,-1.2700322310077112,-0.9850567144206543,2.5787596702575684,1.1370043754577637
-0.8094043731689453,-3.003000875512594,-1.268702809010641,-0.9849966329387208,2.578808307647705,1.1369805335998535
-0.8089485168457031,-3.002977033654684,-1.2686789671527308,-0.9849236768535157,2.5786986351013184,1.1369805335998535
-0.8089971542358398,-3.002977033654684,-1.268702809010641,-0.984947995548584,2.578310489654541,1.1369686126708984
-0.8090333938598633,-3.002953191796774,-1.268714729939596,-0.9849003118327637,2.5780673027038574,1.1369686126708984
-0.8089971542358398,-3.002965112725729,-1.2687628904925745,-0.9849241536906739,2.5780186653137207,1.1369566917419434
-0.8090572357177734,-3.002989431420797,-1.2687628904925745,-0.984947995548584,2.5780186653137207,1.1369328498840332
-0.808985710144043,-3.002965112725729,-1.2687752882586878,-0.9849966329387208,2.578007221221924,1.1369686126708984
-0.8090572357177734,-3.002965112725729,-1.2687752882586878,-0.9849365514567872,2.578007221221924,1.1369328498840332
-0.8090448379516602,-3.003000875512594,-1.2687628904925745,-0.984947995548584,2.5779833793640137,1.13692045211792
-0.8090572357177734,-3.002965112725729,-1.2687390486346644,-0.9849723142436524,2.577995777130127,1.1369447708129883
-0.8090810775756836,-3.0030609569945277,-1.268799130116598,-0.9849842351726075,2.578031063079834,1.13692045211792
-0.8092126846313477,-3.0030132732787074,-1.2688592115985315,-0.985009030704834,2.577775478363037,1.136909008026123
-0.8101625442504883,-3.0030609569945277,-1.2689560095416468,-0.9852617543986817,2.5761055946350098,1.1368966102600098
-0.8103170394897461,-3.0030490360655726,-1.2689803282367151,-0.9853361409953614,2.5757269859313965,1.1368966102600098
-0.8112297058105469,-3.003085275689596,-1.2694266478167933,-0.9865034383586426,2.573394298553467,1.136909008026123
-0.8114175796508789,-3.003084798852438,-1.2781966368304651,-0.9868367475322266,2.5672059059143066,1.136909008026123
-0.8114042282104492,-3.003097196618551,-1.2910364309894007,-0.9868124288371583,2.5670981407165527,1.1369328498840332
-0.8114528656005859,-3.003073354760641,-1.291736904774801,-0.9868601125529786,2.567046642303467,1.136885166168213
-0.8114528656005859,-3.003073354760641,-1.291736904774801,-0.9868601125529786,2.567046642303467,1.136885166168213
-0.8117532730102539,-3.003084798852438,-1.314068619404928,-0.9921763700297852,2.5611233711242676,1.13692045211792
-0.8117523193359375,-3.003108640710348,-1.3230183760272425,-0.9986961644938965,2.561148166656494,1.136885166168213
-0.8142786026000977,-3.003097196618551,-1.3416278998004358,-1.0011471074870606,2.5610508918762207,1.136909008026123
-0.8142786026000977,-3.003097196618551,-1.3416278998004358,-1.0011471074870606,2.5610508918762207,1.136909008026123
-0.8235177993774414,-3.0030609569945277,-1.3623364607440394,-1.0013273519328614,2.5541634559631348,1.13692045211792
-0.828577995300293,-3.003084798852438,-1.3732312361346644,-1.0024841588786622,2.54575777053833,1.1368727684020996
-0.8291921615600586,-3.003084798852438,-1.3863385359393519,-1.0083826345256348,2.540832996368408,1.136909008026123
-0.8291921615600586,-3.003084798852438,-1.3863385359393519,-1.0083826345256348,2.540832996368408,1.136909008026123
-0.829228401184082,-3.0031210384764613,-1.438373867665426,-1.010298566227295,2.5384678840637207,1.1368966102600098
-0.8291692733764648,-3.003073354760641,-1.439852539693014,-1.0103100103190918,2.5379719734191895,1.1369447708129883
-0.829228401184082,-3.003073354760641,-1.4714463392840784,-1.010333852177002,2.528855800628662,1.136909008026123
-0.829228401184082,-3.003073354760641,-1.4714463392840784,-1.010333852177002,2.528855800628662,1.136909008026123
-0.8291807174682617,-3.0030609569945277,-1.5087459723102015,-1.0103576940349122,2.5287957191467285,1.136909008026123
-0.8291807174682617,-3.0030609569945277,-1.5087459723102015,-1.0103576940349122,2.5287957191467285,1.136909008026123
-0.8291807174682617,-3.0030490360655726,-1.5465930143939417,-1.010333852177002,2.5286765098571777,1.1369566917419434
-0.8291807174682617,-3.0030490360655726,-1.5465930143939417,-1.010333852177002,2.5286765098571777,1.1369566917419434
-0.8291215896606445,-3.002989431420797,-1.5977376143084925,-1.0102976125529786,2.5273385047912598,1.1369447708129883
-0.829096794128418,-3.002953191796774,-1.6215255896197718,-1.010333852177002,2.5270743370056152,1.13692045211792
-0.829096794128418,-3.002881189385885,-1.6595338026629847,-1.0102737706950684,2.5268235206604004,1.1369447708129883
-0.829096794128418,-3.002881189385885,-1.6595338026629847,-1.0102737706950684,2.5268235206604004,1.1369447708129883
-0.8281984329223633,-3.0023542843260707,-1.6994274298297327,-1.0102618497661133,2.5165486335754395,1.1369447708129883
-0.828150749206543,-3.0020891628661097,-1.7254536787616175,-1.010237531071045,2.4933457374572754,1.13692045211792
-0.828150749206543,-3.0020891628661097,-1.7254536787616175,-1.010237531071045,2.4933457374572754,1.13692045211792
-0.8272771835327148,-2.990133901635641,-1.7878697554217737,-1.010237531071045,2.485887050628662,1.1369447708129883
-0.8273248672485352,-2.9733087025084437,-1.8091185728656214,-1.0102737706950684,2.485779285430908,1.1369447708129883
-0.8273477554321289,-2.953132291833395,-1.8256848494159144,-1.0102737706950684,2.485456943511963,1.136909008026123
-0.827336311340332,-2.928959985772604,-1.8407252470599573,-1.0102618497661133,2.4851222038269043,1.13692045211792
-0.8273611068725586,-2.9060989818968714,-1.8540504614459437,-1.0102737706950684,2.481964588165283,1.1369328498840332
-0.8273248672485352,-2.8875724277892054,-1.8644231001483362,-1.0102856916240235,2.4624600410461426,1.1369686126708984
-0.8272390365600586,-2.873094221154684,-1.8726008574115198,-1.0102499288371583,2.447232723236084,1.1369566917419434
-0.8272886276245117,-2.858886858026022,-1.882496182118551,-1.0102618497661133,2.433098316192627,1.13692045211792
-0.8271932601928711,-2.8425690136351527,-1.8931706587420862,-1.0102499288371583,2.417891025543213,1.1369686126708984
-0.827204704284668,-2.8268352947630824,-1.9008334318744105,-1.010237531071045,2.3946890830993652,1.13692045211792
-0.8271188735961914,-2.8096209965147914,-1.9069469610797327,-1.0102499288371583,2.368187427520752,1.13692045211792
-0.8270368576049805,-2.792110105554098,-1.9141762892352503,-1.01022561014209,2.3603529930114746,1.13692045211792
-0.8268804550170898,-2.7753664455809535,-1.9213712851153772,-1.0101898473552247,2.3602452278137207,1.1369447708129883
-0.8267717361450195,-2.7553469143309535,-1.9288886229144495,-1.01022561014209,2.360172748565674,1.13692045211792
-0.8267374038696289,-2.7357269726195277,-1.9352176825152796,-1.0101536077312012,2.3580565452575684,1.1369447708129883
-0.826664924621582,-2.715304513970846,-1.941993538533346,-1.0102136892131348,2.340832233428955,1.136909008026123
-0.8266286849975586,-2.6997672520079554,-1.9494641462909144,-1.0101898473552247,2.3267769813537598,1.136909008026123
-0.8264360427856445,-2.686488767663473,-1.9567955175982874,-1.010153130894043,2.314025402069092,1.136909008026123
-0.826390266418457,-2.674347539941305,-1.9623826185809534,-1.0101898473552247,2.304320812225342,1.136909008026123
-0.8264017105102539,-2.662001749078268,-1.9663985411273401,-1.0101774495891114,2.3042263984680176,1.136885166168213
-0.8263654708862305,-2.6458527050414027,-1.9698484579669397,-1.0101774495891114,2.3024563789367676,1.1369566917419434
-0.8263425827026367,-2.626955648461813,-1.9737685362445276,-1.010129765873291,2.298161029815674,1.13692045211792
-0.8263425827026367,-2.6041180096068324,-1.980696980153219,-1.0101536077312012,2.2979912757873535,1.136909008026123
-0.8262948989868164,-2.583249708215231,-1.9883993307696741,-1.0101416868022461,2.297299861907959,1.1368966102600098
-0.8263177871704102,-2.564077993432516,-1.996362034474508,-1.0100935262492676,2.2888808250427246,1.1369328498840332
-0.8263063430786133,-2.551005025903219,-2.0045412222491663,-1.0101173681071778,2.2723774909973145,1.1368966102600098
-0.8261861801147461,-2.5392123661436976,-2.0154627005206507,-1.0098522466472168,2.260305881500244,1.136909008026123
-0.8261499404907227,-2.527882238427633,-2.0270827452289026,-1.0098532003215333,2.23732328414917,1.13692045211792
-0.8259820938110352,-2.5162693462767542,-2.038572613392965,-1.0097692769816895,2.2253193855285645,1.13692045211792
-0.8257999420166016,-2.501880785027975,-2.0490244070636194,-1.0096128743937989,2.2215094566345215,1.1369447708129883
-0.8256464004516602,-2.4860531292357386,-2.057333771382467,-1.0096734327128907,2.2214856147766113,1.136909008026123
-0.823948860168457,-2.468189378777975,-2.0680630842791956,-1.009709195499756,2.221449375152588,1.13692045211792
-0.8234796524047852,-2.4545022449889125,-2.0826361815081995,-1.0096734327128907,2.2214255332946777,1.1368966102600098
-0.8232498168945312,-2.4421478710570277,-2.1003392378436487,-1.0096009534648438,2.2213778495788574,1.1368727684020996
-0.8229618072509766,-2.4329596958556117,-2.117129151021139,-1.0094664853862305,2.221282482147217,1.136909008026123
-0.8228311538696289,-2.4226142368712367,-2.134044949208395,-1.0093725484660645,2.2212700843811035,1.1368608474731445
-0.8227949142456055,-2.4125291309752406,-2.1505945364581507,-1.0093248647502442,2.2211384773254395,1.1368365287780762
-0.8227357864379883,-2.4012724361815394,-2.1693432966815394,-1.0093005460551758,2.220032215118408,1.1368727684020996
-0.8227605819702148,-2.390658517877096,-2.185800377522604,-1.0093248647502442,2.216515064239502,1.1368608474731445
-0.8227357864379883,-2.3783298931517542,-2.203531567250387,-1.009301022892334,2.2164902687072754,1.136885166168213
-0.8227005004882812,-2.3667155704894007,-2.219757382069723,-1.009312943821289,2.2163949012756348,1.1368727684020996
-0.8226652145385742,-2.353673597375387,-2.2378600279437464,-1.0092767041972657,2.2162270545959473,1.136909008026123
-0.8225202560424805,-2.3449484310545863,-2.2493794600116175,-1.0092170995524903,2.216108798980713,1.1368608474731445
-0.8225088119506836,-2.3331877193846644,-2.2721646467791956,-1.0092771810344239,2.215867519378662,1.136885166168213
-0.8225088119506836,-2.3262363872923792,-2.2910075823413294,-1.0092647832683106,2.2147440910339355,1.1368489265441895
-0.8222551345825195,-2.318984170953268,-2.306220595036642,-1.0091684621623536,2.2035889625549316,1.1368727684020996
-0.8217945098876953,-2.314354558984274,-2.319274965916769,-1.0091446203044434,2.1763253211975098,1.1368608474731445
-0.8198223114013672,-2.3142596683897914,-2.333639446889059,-1.00910838068042,2.1676955223083496,1.136824607849121
-0.819427490234375,-2.314099451104635,-2.3494582811938685,-1.0090606969645997,2.167707920074463,1.1368365287780762
-0.818455696105957,-2.3122383556761683,-2.3654428164111536,-1.0090125364116211,2.1676955223083496,1.1367883682250977
-0.8098764419555664,-2.3096491299071253,-2.3826356569873255,-1.0090368551066895,2.167707920074463,1.1367287635803223
-0.7912874221801758,-2.309652944604391,-2.399360005055563,-1.0091088575175782,2.16774320602417,1.1367526054382324
-0.7656316757202148,-2.309664865533346,-2.4168925921069544,-1.0090487760356446,2.16776704788208,1.1366806030273438
-0.7405691146850586,-2.3097006283202113,-2.4345322291003626,-1.0090606969645997,2.1677908897399902,1.1362147331237793
-0.7222166061401367,-2.309652944604391,-2.452003065739767,-1.0090606969645997,2.167815685272217,1.135948657989502
-0.712702751159668,-2.309629102746481,-2.471706215535299,-1.009085015659668,2.167839527130127,1.135791301727295
-0.708735466003418,-2.3096405468382777,-2.490821186696188,-1.0089891713908692,2.167839527130127,1.1350898742675781
-0.7085180282592773,-2.3096052608885707,-2.509104077016012,-1.0089524549296875,2.1678872108459473,1.133056640625
-0.708348274230957,-2.3096171818175257,-2.5254278818713587,-1.0085538190654297,2.1678872108459473,1.1329727172851562
-0.7066125869750977,-2.3096405468382777,-2.5425031820880335,-1.0068448346904297,2.167850971221924,1.1328277587890625
-0.7047605514526367,-2.3096171818175257,-2.5583155790912073,-1.0058058065227051,2.1678624153137207,1.1320109367370605
-0.7047128677368164,-2.3096052608885707,-2.5746033827411097,-1.005709485416748,2.1678624153137207,1.1267995834350586
-0.7046165466308594,-2.309569021264547,-2.589313570653097,-1.0053232473186036,2.167850971221924,1.095285415649414
-0.7043523788452148,-2.309629102746481,-2.602821175252096,-1.005157784824707,2.1678624153137207,1.0373005867004395
-0.7041854858398438,-2.3096405468382777,-2.617365900670187,-1.0051697057536622,2.1678624153137207,0.9669346809387207
-0.7035417556762695,-2.309629102746481,-2.630334202443258,-1.005145863895752,2.167839527130127,0.9205765724182129
-0.7031526565551758,-2.309629102746481,-2.645254675542013,-1.005145863895752,2.1677908897399902,0.8935699462890625
-0.7031536102294922,-2.309664865533346,-2.6576362291919153,-1.0050981801799317,2.167778491973877,0.8705935478210449
-0.703129768371582,-2.3096171818175257,-2.669089380894796,-1.005133942966797,2.167755603790283,0.8423871994018555
-0.7031660079956055,-2.3096405468382777,-2.6793909708606165,-1.005133942966797,2.1677308082580566,0.8185381889343262
-0.7031412124633789,-2.3096405468382777,-2.6913819948779505,-1.0051582616618653,2.167635440826416,0.8027434349060059
-0.7031774520874023,-2.309688707391256,-2.7045629660235804,-1.0051697057536622,2.1675515174865723,0.7934551239013672
-0.7031888961791992,-2.309688707391256,-2.719632927571432,-1.0051582616618653,2.1668972969055176,0.7905020713806152
-0.7032136917114258,-2.3097244701781214,-2.735678497944967,-1.0051940244487305,2.157517910003662,0.7905154228210449
-0.7032613754272461,-2.30979647258901,-2.7512763182269495,-1.0051821035197754,2.1446032524108887,0.7905154228210449
-0.7033224105834961,-2.309808393517965,-2.763590637837545,-1.0052178663066407,2.1389870643615723,0.7904672622680664
-0.7033700942993164,-2.3099452457823695,-2.777902428303854,-1.005254105930664,2.1388745307922363,0.7904796600341797
-0.7035255432128906,-2.310324808160299,-2.790855948125021,-1.0053504270366211,2.138899326324463,0.7904195785522461
-0.7039575576782227,-2.3106733761229457,-2.8031883875476282,-1.0054868024638672,2.138885974884033,0.7904553413391113
-0.7042722702026367,-2.3112698994078578,-2.817723814641134,-1.0057848256877442,2.138899326324463,0.7904677391052246
-0.7053012847900391,-2.3114944897093714,-2.834708038960592,-1.0063489240458985,2.1389222145080566,0.7904915809631348
-0.7088556289672852,-2.3117581806578578,-2.8503075281726282,-1.0068152707866211,2.138885974884033,0.7905397415161133
-0.7109193801879883,-2.311904569665426,-2.86056358018984,-1.0068391126445313,2.1389222145080566,0.7905516624450684
-0.7108821868896484,-2.3138724766173304,-2.8680229822741907,-1.0068271917155762,2.1389107704162598,0.790611743927002
-0.7111263275146484,-2.3201385937132777,-2.872848097478048,-1.0068639081767579,2.1389107704162598,0.7905755043029785
-0.7112646102905273,-2.329682012597555,-2.8757451216327112,-1.0068271917155762,2.1389107704162598,0.7905635833740234
-0.7117834091186523,-2.3358055553831996,-2.8757551352130335,-1.0068510335734864,2.138899326324463,0.7905635833740234
-0.7155542373657227,-2.3380466900267542,-2.8757670561419886,-1.0068872731975098,2.138885974884033,0.790611743927002
-0.7238569259643555,-2.3390757046141566,-2.875948492680685,-1.0068510335734864,2.1388144493103027,0.7905755043029785
-0.7349767684936523,-2.3393107853331507,-2.877465788518087,-1.006803349857666,2.1382737159729004,0.7905874252319336
-0.7446956634521484,-2.339454790154928,-2.8843260447131556,-1.0068152707866211,2.1341185569763184,0.790611743927002
-0.7479066848754883,-2.339442869225973,-2.8866944948779505,-1.0068152707866211,2.1328625679016113,0.790611743927002
-0.7478704452514648,-2.339442869225973,-2.8866100947009485,-1.0068271917155762,2.1329216957092285,0.790647029876709
-0.7478351593017578,-2.3394185505309046,-2.8865743319140833,-1.0067909520915528,2.1330294609069824,0.7905993461608887
-0.7477998733520508,-2.3393947086729945,-2.886477295552389,-1.0068152707866211,2.133185863494873,0.7906355857849121
-0.7477865219116211,-2.3393947086729945,-2.886261288319723,-1.006803349857666,2.1335082054138184,0.7906355857849121
-0.7477636337280273,-2.339346548120016,-2.8862133661853235,-1.0068152707866211,2.133759021759033,0.790611743927002
